X:1
T:Ely, LM
T:Thomas Turton, 1844
T:Ely, LM
T:Public Domain
C:Thomas Turton, 1844
Z:Public Domain
%%score ( 1 2 ) ( 3 4 )
L:1/8
M:4/4
K:A
V:1 treble 
V:2 treble 
V:3 bass 
V:4 bass 
V:1
 [EA]2 | [EA]2 [EB]2 [Ec]2 [EA]2 | [EF]2 [DG]2 [CA]2 [EB]2 | [Ec]2 [^DA]2 [EG]2 [EA]2 | %4
 [EG]2 [^DF]2 E2 E2 | [Ee]2 [Gd]2 [Ac]2 [FA]2 | (FG) [Ac]2 [GB]2 E2 | [EF]2 [DA]2 [CE]2 [Ec]2 | %8
 [FB]2 (ED) [CA]2 |] %9
V:2
 x2 | x8 | x8 | x8 | x4 E2 E2 | x8 | d2 x6 | x8 | x2 B2 x2 |] %9
V:3
 [A,C]2 | [A,C]2 [G,B,]2 A,2 [C,A,]2 | [D,A,]2 [B,,B,]2 [A,,E,]2 [E,G,]2 | %3
 A,2 [F,A,]2 [E,B,]2 [C,A,]2 | B,,2 z A, [E,G,]2 (E,D,) | [C,A,]2 [E,B,]2 [A,C]2 [DF][CE] | %6
 [B,D]2 [A,E]2 [E,E]2 (E,A,) | [D,A,]2 [F,A,]2 A,2 [C,A,]2 | [D,A,]2 [E,G,]2 [A,,A,]2 |] %9
V:4
 x2 | x8 | x8 | A,2 x6 | B,3 (B,,2 x G,2) | x8 | x6 C,2 | x8 | x6 |] %9

